X:1
T:Title
%%score { ( 1 3 ) | ( 2 4 5 ) }
L:1/8
M:4/4
K:D
V:1 treble nm="Grand Piano"
V:3 treble 
V:2 bass 
V:4 bass 
V:5 bass 
V:1
 z4 z2[Q:1/4=100] A2 | [Fd]2 [FA]2 [EG]2 F2 | F4 E2 D2 | G2 [EG][EG] [CA]2 [A,CE]2 | %4
[M:3/4] [A,DF]6 |[M:1/4] [A,DF]2 |[M:4/4] [DFB]2 [B,DF]2 [^A,CE]2 [B,D]2 | %7
 [B,DF]4 [B,DF]2 [B,DF]2 | ^G2 GG A2 B2 |[M:3/4] [CA]6 |[M:1/4] (3AAA | %11
[M:4/4] B>B [Gc]>[Gc] [Fd]2 [Ge]>[Ge] |[M:3/4] [Fd]6 |[M:1/4] F2 |[M:4/4] [DB]2 [DF]4 [DE]2 | %15
 D>D D>D [CE]2 [CA]2 |[M:3/4] A6 |[M:1/4] (3ABc |[M:4/4] d4 z4 | [DF]4[K:bass] z4 | %20
[M:3/4] [F,D]6 |] %21
V:2
 z4 z2 A,2 | [D,A,]2 [D,D]2 [D,B,]2 [D,A,D]2 | [A,D]4 [G,A,C]2 [F,A,]2 | %3
 [E,A,E]2 [C,A,][C,A,] [A,,E,]2 A,,2 |[M:3/4] D,6 |[M:1/4] D,2 |[M:4/4] B,,2 D,2 F,2 F,2 | %7
 B,,4 B,,2 D,F, | [E,B,E]2 [E,B,E][E,B,D] [E,A,C]2 [E,^G,D]2 |[M:3/4] [A,,A,]6 | %10
[M:1/4][K:treble] (3[A,CG][A,CG][A,DF] | %11
[M:4/4] [G,B,E]>[G,B,E][K:bass] [E,A,]>[E,A,] [D,A,]2 [A,,A,]2 |[M:3/4] [D,A,]2 D,>D, D,2 | %13
[M:1/4] [D,A,D]2 |[M:4/4] [B,,B,]2 [B,,B,]4 [B,,B,]2 | %15
 [B,,F,]>[B,,F,] [B,,F,]>[B,,F,] [A,,A,]2 [A,,G,]2 |[M:3/4] [D,F,D]6 |[M:1/4] (3z[K:treble] ^G=G | %18
[M:4/4] F4[K:bass] z4 | z4 A,4 |[M:3/4] D,6 |] %21
V:3
 x8 | x8 | x8 | x8 |[M:3/4] x6 |[M:1/4] x2 |[M:4/4] x8 | x8 | x8 |[M:3/4] x6 |[M:1/4] x2 | %11
[M:4/4] x8 |[M:3/4] z2 A,>A, A,2 |[M:1/4] x2 |[M:4/4] x8 | x8 |[M:3/4] x6 |[M:1/4] x2 | %18
[M:4/4] z2 (3A,B,C [FA]2 [GB]2 | z2[K:bass] A,2 [CE]4 |[M:3/4] x6 |] %21
V:4
 x8 | x8 | x8 | x8 |[M:3/4] x6 |[M:1/4] x2 |[M:4/4] x8 | x8 | x8 |[M:3/4] x6 | %10
[M:1/4][K:treble] x2 |[M:4/4] x2[K:bass] x6 |[M:3/4] x6 |[M:1/4] x2 |[M:4/4] x8 | x8 |[M:3/4] x6 | %17
[M:1/4] x2/3[K:treble] x4/3 |[M:4/4] z2[K:bass] (3D,D,D, [D,D]4 | [D,A,]2 F,2 z2 z G, | %20
[M:3/4] x6 |] %21
V:5
 x8 | x8 | x8 | x8 |[M:3/4] x6 |[M:1/4] x2 |[M:4/4] x8 | x8 | x8 |[M:3/4] x6 | %10
[M:1/4][K:treble] x2 |[M:4/4] x2[K:bass] x6 |[M:3/4] x6 |[M:1/4] x2 |[M:4/4] x8 | x8 |[M:3/4] x6 | %17
[M:1/4] x2/3[K:treble] x4/3 |[M:4/4] x2[K:bass] x6 | z4 z2 A,,2 |[M:3/4] x6 |] %21

